packages/tokens/icons/envelopeDual/size32Px.svg

<svg viewBox="0 0 32 32" fill="none" xmlns="http://www.w3.org/2000/svg" width="1em" height="1em"><path d="M7 7.5V7.5C7 6.39543 7.89543 5.5 9 5.5L27.5 5.5C28.6046 5.5 29.5 6.39543 29.5 7.5V20C29.5 20.8284 28.8284 21.5 28 21.5V21.5" stroke="currentColor" stroke-linecap="round"/><path d="M2.5 13C2.5 12.1716 3.17157 11.5 4 11.5L24 11.5C24.8284 11.5 25.5 12.1716 25.5 13V26C25.5 26.8284 24.8284 27.5 24 27.5H4C3.17157 27.5 2.5 26.8284 2.5 26L2.5 13Z" stroke="currentColor"/><path d="M2.84375 11.9688L12.3983 21.5233C13.1793 22.3043 14.4457 22.3043 15.2267 21.5233L24.7812 11.9688" stroke="currentColor"/></svg>

<svg xmlns="http://www.w3.org/2000/svg" fill="none" viewBox="0 0 32 32" width="1em" height="1em"><path stroke="currentColor" stroke-linecap="round" d="M7 7.5v0a2 2 0 0 1 2-2h18.5a2 2 0 0 1 2 2V20a1.5 1.5 0 0 1-1.5 1.5v0"/><path stroke="currentColor" d="M2.5 13A1.5 1.5 0 0 1 4 11.5h20a1.5 1.5 0 0 1 1.5 1.5v13a1.5 1.5 0 0 1-1.5 1.5H4A1.5 1.5 0 0 1 2.5 26V13Z"/><path stroke="currentColor" d="m2.844 11.969 9.554 9.554a2 2 0 0 0 2.829 0l9.554-9.554"/></svg>
